X:1
T:Title
%%score { ( 1 3 ) | ( 2 4 ) }
L:1/8
M:4/4
K:Ab
V:1 treble nm="Grand Piano"
V:3 treble 
V:2 bass 
V:4 bass 
V:1
 z4 z2[Q:1/4=106] [CE][CE] | [CE]2 [CA]2 [CA]2 [EA][EB] | A2 G2 G2 G2 | E2 d4 dd |[M:3/4] d2 c4 | %5
[M:1/4] [CE][CE] |[M:4/4] [CE]2 [A,CA]2 [A,EA]2 [CEA][CEB] | A2 G2 G2 B2 | [=Dc]2 [DB]4 [DF][DB] | %9
 B2 E4 z2 | z4 d4 | E2 cc c2 AB | A2 G4 FG | [DF]2 [CE]4 z2 | z4 d4 | E2 cc c2 ce | e2 d4 Bc | %17
[M:3/4] [DB]2 [CA]4 |] %18
V:2
 z4 z2 [A,,A,][A,,A,] | [A,,A,]2 [A,,A,]2 [A,,A,]2 [C,A,][C,A,] | %2
 [E,B,D]2 [E,B,D]2 [E,B,D]2 [E,B,D]2 | [E,G,]2 [E,G,E]4 [F,A,E][K:treble][G,B,E] | %4
[M:3/4] [A,F]2[K:bass] [A,E]4 |[M:1/4] [A,,A,][A,,A,] |[M:4/4] A,2 E,2 C,2 A,,A,, | %7
 [E,CE]2 [E,B,E]2 [E,B,E]2 [E,G,E]2 | [B,,F,]2 [B,,B,]4 [B,,B,][B,,A,] | [E,G,D]2 [E,G,D]4 z2 | %10
 z4 E4 | [A,C]2 [A,E][A,E] [A,E]2 [A,CE][A,CE] | [E,CE]2 [E,B,E]4 [E,G,D][E,B,E] | %13
 [A,,A,]2 [A,,A,]4 z2 | z4 E4 | [A,C]2 [A,E][A,E] [A,E]2 [=A,E_G][A,CG] | %16
 [B,DF]2 [B,DF]4[K:bass] [E,DE][E,G,E] |[M:3/4] [A,,A,]2 [A,,A,]4 |] %18
V:3
 x8 | x8 | x8 | x8 |[M:3/4] x6 |[M:1/4] x2 |[M:4/4] x8 | x8 | x8 | x8 | E2 dd z2 B,2 | x8 | x8 | %13
 x8 | E2 dd z2 B,2 | x8 | x8 |[M:3/4] x6 |] %18
V:4
 x8 | x8 | x8 | x7[K:treble] x |[M:3/4] x2[K:bass] x4 |[M:1/4] x2 |[M:4/4] x8 | x8 | x8 | x8 | %10
 [E,G,]2 [E,G,E][E,G,E] [F,A,]2 G,2 | x8 | x8 | x8 | [E,G,]2 [E,G,E][E,G,E] [F,A,]2 G,2 | x8 | %16
 x6[K:bass] x2 |[M:3/4] x6 |] %18

